X: 42881
T: Wilfred Prosper's
R: reel
M: 4/4
K: Dmajor
Ac|:d2AF GFEF|D2FD ADFD|A,2CA, EA,CE|DFBF AFAc|
d2AF GFEF|D2FD ADFD|A,2CA, EA,CE|1 DFEC D2 (3ABc:|2 DFEC D3f|
|:affa eddd|BddB edBd|AGFG Adfd|edcB A2fg|
abaf gfeg|fedf edBd|AGFG Adfd|1 eaec d3f:|2 efec d2||

